X: 7195
T: Cillian's Midnight Dip
R: reel
M: 4/4
K: Edorian
|:B ~E3 ABdB|A ~F3 DFGF|Eeed egfe|dBAF EFGA|
ABBA BBdB|A ~F3 DFGF|E2 ed egfe|1 dBAF FEEA:|2 dBAF F ~E3||
|:edB/c/d e2 ag|f ~B3 ggfg|efge a3 g|edBA B ~e3|
edB/c/d e2 ag|f ~B3 ggfg|~a3 g effe|1 dBAF F ~E3:|2 dBAF FEFA||

